X: 21922
T: SIR J. HENDERSON'S JIG
R: jig
B: K\"ohler's Violin Repository, v.2, 1885 p.192 #2
F: http://www.archive.org/details/klersviolinrepos02rugg
Z: 2012 John Chambers <jc:trillian.mit.edu>
M: 6/8
L: 1/8
K: G
uc |\
B2G- GBG | dBG Bcd | efg dBd | ecA (.A2.c) |\
B2G- GBG | dBG Bcd | efg dBg | dBG G2 :|
|: ud |\
gdg gbg | gbg afd | efg dBd | ecA (.A2.f) |\
gdg gbg | gbg afd | efg dBg | dBG (.G2.d) |
gdg gbg | gbg afd | efg dBd | ecA (.A2.f) |\
gdg bag | f>ed afd | efg dBg | dBG G2 :|

%%sep 2 1 500

